usr/share/icons/biglinux-icons-material/22/actions/text_horz_kern.svg

<svg xmlns="http://www.w3.org/2000/svg" viewBox="0 0 22 22"><path d="M5 11a4 4 0 0 0-4 4 4 4 0 0 0 4 4 4 4 0 0 0 3-1.361V19h1v-8H8v1.361A4 4 0 0 0 5 11zm8 0v8h1v-1.361A4 4 0 0 0 17 19a4 4 0 0 0 4-4 4 4 0 0 0-4-4 4 4 0 0 0-3 1.361V11h-1zm-8 1a3 3 0 0 1 3 3 3 3 0 0 1-3 3 3 3 0 0 1-3-3 3 3 0 0 1 3-3zm12 0a3 3 0 0 1 3 3 3 3 0 0 1-3 3 3 3 0 0 1-3-3 3 3 0 0 1 3-3z" style="fill:currentColor;fill-opacity:1;stroke:none;color:#dedede"/><path d="M9 3 5 6l4 3V3zm4 0v6l4-3-4-3z" style="fill:currentColor;fill-opacity:1;stroke:none;color:#3daee9"/></svg>

<svg xmlns="http://www.w3.org/2000/svg" viewBox="0 0 22 22">
  <defs id="defs3051">
    <style type="text/css" id="current-color-scheme">
      .ColorScheme-Text {
        color:#363636;
      }
      .ColorScheme-Highlight {
        color:#3daee9;
      }
      </style>
  </defs>
 <path 
     style="fill:currentColor;fill-opacity:1;stroke:none" 
	d="M 5 11 A 4 4 0 0 0 1 15 A 4 4 0 0 0 5 19 A 4 4 0 0 0 8 17.638672 L 8 19 L 9 19 L 9 15 L 9 11 L 8 11 L 8 12.361328 A 4 4 0 0 0 5 11 z M 13 11 L 13 15 L 13 19 L 14 19 L 14 17.638672 A 4 4 0 0 0 17 19 A 4 4 0 0 0 21 15 A 4 4 0 0 0 17 11 A 4 4 0 0 0 14 12.361328 L 14 11 L 13 11 z M 5 12 A 3 3 0 0 1 8 15 A 3 3 0 0 1 5 18 A 3 3 0 0 1 2 15 A 3 3 0 0 1 5 12 z M 17 12 A 3 3 0 0 1 20 15 A 3 3 0 0 1 17 18 A 3 3 0 0 1 14 15 A 3 3 0 0 1 17 12 z "
        class="ColorScheme-Text"
     />
 <path 
     style="fill:currentColor;fill-opacity:1;stroke:none" 
	 d="M 9 3 L 5 6 L 9 9 L 9 3 z M 13 3 L 13 9 L 17 6 L 13 3 z "
       class="ColorScheme-Highlight"
     />
</svg>
